icons/tv.svg

<svg width="24" height="24" viewBox="0 0 24 24" fill="none" xmlns="http://www.w3.org/2000/svg">
<path fill-rule="evenodd" clip-rule="evenodd" d="M7.29289 2.29289C7.68342 1.90237 8.31658 1.90237 8.70711 2.29289L11.4142 5H12.5858L15.2929 2.29289C15.6834 1.90237 16.3166 1.90237 16.7071 2.29289C17.0976 2.68342 17.0976 3.31658 16.7071 3.70711L15.4142 5H21C21.5523 5 22 5.44772 22 6V20C22 20.5523 21.5523 21 21 21H3C2.44772 21 2 20.5523 2 20V6C2 5.44772 2.44772 5 3 5H8.58579L7.29289 3.70711C6.90237 3.31658 6.90237 2.68342 7.29289 2.29289ZM4 7V19H20V7H4Z" fill="black"/>
</svg>

<svg
  width="24"
  height="24"
  viewBox="0 0 24 24"
  xmlns="http://www.w3.org/2000/svg"
>
  <path
    fill-rule="evenodd"
    clip-rule="evenodd"
    d="M7.293 2.293a1 1 0 0 1 1.414 0L11.414 5h1.172l2.707-2.707a1 1 0 1 1 1.414 1.414L15.414 5H21a1 1 0 0 1 1 1v14a1 1 0 0 1-1 1H3a1 1 0 0 1-1-1V6a1 1 0 0 1 1-1h5.586L7.293 3.707a1 1 0 0 1 0-1.414zM4 7v12h16V7H4z"
  />
</svg>
